X:49
T:Rights of Man, The
Z:Leo Rowsome's setting, from his uilleann pipe tutor.
M:4/4
E:6.5
R:hornpipe
K:G
GA|BcAB GAFG|EFGA B2ef|gfed Bgfg|(3ege dB A2GA|BcABGAFG|EFGA B2ef|gfed BA (3Bcd|e2 E2 E2:|
ga|babg efga|babg egfe| dAFA d^cdf|afdf a2 gf|edef gfga |(3bag af g2ef|gfed BA  (3Bcd|e2 E2 E2:|
\noindent The first measure is often played in triplets:
||(3BcB (3ABA (3GAG (3FGF|EFGA B2 || 
<end>
<start>
